img/about-monitor-fill-1.svg

<svg height="17.970928" viewBox="0 0 20.4721583 17.9709275" width="20.472158" xmlns="http://www.w3.org/2000/svg"><path d="m20.4721583 2.12707229c-.7529916.36073155-1.5629214.60467454-2.4125159.71455255.8675077-.56182904 1.5334926-1.45052786 1.8469725-2.50991766-.8112093.51967458-1.7107047.8969915-2.6671384 1.1008532-.7664264-.88178825-1.8578483-1.43256038-3.0657057-1.43256038-2.3197514 0-4.19999119 2.03101542-4.19999119 4.53678673 0 .35520311.03710579.70142248.10875829 1.03382071-3.49114269-.18934951-6.58563737-1.99577153-8.65716388-4.74064843-.36146155.67032492-.56874215 1.44983679-.56874215 2.28117791 0 1.57353593.74147598 2.96255974 1.86808444 3.77593339-.68837632-.02349593-1.33580832-.22735763-1.90199145-.56735749-.00063975.01934959-.00063975.03800812-.00063975.0573577 0 2.19825112 1.44776544 4.03162438 3.3695893 4.44833148-.35250498.1036585-.72356285.158943-1.10677606.158943-.27061634 0-.53355563-.0283333-.79009736-.0808536.53419538 1.8022757 2.08560112 3.1139011 3.92361708 3.1505271-1.43752936 1.2169508-3.24867561 1.9418692-5.21656182 1.9418692-.33907013 0-.67302221-.0214228-1.00185625-.0628862 1.85848812 1.2867474 4.06628244 2.037926 6.43849378 2.037926 7.72568072 0 11.94998262-6.9133305 11.94998262-12.90824668 0-.19695113-.0038385-.39252016-.0121553-.58739813.8208056-.63922737 1.5328528-1.43808883 2.0958372-2.3482104" fill="#9b9b9b" fill-rule="evenodd"/></svg>

<?xml version="1.0" encoding="UTF-8"?>
<svg width="20.4721583px" height="17.9709275px" viewBox="0 0 20.4721583 17.9709275" version="1.1" xmlns="http://www.w3.org/2000/svg" xmlns:xlink="http://www.w3.org/1999/xlink">
    <!-- Generator: Sketch 50.2 (55047) - http://www.bohemiancoding.com/sketch -->
    <desc>Created with Sketch.</desc>
    <defs></defs>
    <g id="Page-1" stroke="none" stroke-width="1" fill="none" fill-rule="evenodd">
        <path d="M20.4721583,2.12707229 C19.7191667,2.48780384 18.9092369,2.73174683 18.0596424,2.84162484 C18.9271501,2.2797958 19.593135,1.39109698 19.9066149,0.331707179 C19.0954056,0.85138176 18.1959102,1.22869868 17.2394765,1.43256038 C16.4730501,0.550772129 15.3816282,0 14.1737708,0 C11.8540194,0 9.97377961,2.03101542 9.97377961,4.53678673 C9.97377961,4.89198984 10.0108854,5.23820921 10.0825379,5.57060744 C6.59139521,5.38125793 3.49690053,3.57483591 1.42537402,0.829959005 C1.06391247,1.50028393 0.856631873,2.2797958 0.856631873,3.11113692 C0.856631873,4.68467285 1.59810785,6.07369666 2.72471631,6.88707031 C2.03633999,6.86357438 1.38890799,6.65971268 0.82272486,6.31971282 C0.822085105,6.33906241 0.822085105,6.35772094 0.822085105,6.37707052 C0.822085105,8.57532164 2.26985055,10.4086949 4.19167441,10.825402 C3.83916943,10.9290605 3.46811156,10.984345 3.08489835,10.984345 C2.81428201,10.984345 2.55134272,10.9560117 2.29480099,10.9034914 C2.82899637,12.7057671 4.38040211,14.0173925 6.21841807,14.0540185 C4.78088871,15.2709693 2.96974246,15.9958877 1.00185625,15.9958877 C0.662786124,15.9958877 0.328834042,15.9744649 0,15.9330015 C1.85848812,17.2197489 4.06628244,17.9709275 6.43849378,17.9709275 C14.1641745,17.9709275 18.3884764,11.057597 18.3884764,5.06268082 C18.3884764,4.86572969 18.3846379,4.67016066 18.3763211,4.47528269 C19.1971267,3.83605532 19.9091739,3.03719386 20.4721583,2.12707229" id="Fill-1" fill="#9B9B9B"></path>
    </g>
</svg>
